Simply-Orange-Circles/scalable/mimes/image-jpeg.svg

<svg xmlns="http://www.w3.org/2000/svg" width="48" height="48"><path d="M13.611 2.367v5.965c-.058 1.356.174 2.766-.275 4.072-.807 1.512-2.718.68-3.727-.134-.33-.094-.499.624-.765.851 1.056.906 2.532 1.504 3.955 1.135 1.323-.27 2.013-1.571 1.998-2.781.089-3.035.021-6.072.043-9.108h-1.23zm6.77 0c-.846-.008-1.696.03-2.537.004V14.29c.248.155.78.022 1.133.066V9.377c-.13-.556.128-.689.613-.588 1.585-.064 3.505.214 4.652-1.244 1.182-1.582.568-4.354-1.346-4.912-.826-.204-1.67-.257-2.515-.266zm12.558 0c-1.4.011-2.79.442-3.91 1.344-2.458 1.898-2.934 5.86-.959 8.277 1.76 2.368 5.195 2.953 7.801 1.819 1.967-.88 3.039-3.095 2.97-5.21h-4.79c-.152.236-.017.76-.063 1.102h3.338c.592.421-.45 1.952-1.025 2.45-2.41 2.157-6.714 1.061-7.9-1.952-1.032-2.234.091-5.094 2.279-6.115 2.185-1.198 4.956-.41 6.623 1.328.29-.28.582-.558.873-.838l-.15-.142-.153-.137c-1.309-1.261-3.132-1.94-4.934-1.926zM20.715 3.543c.578.003 1.152.035 1.72.17 1.464.42 1.695 2.816.37 3.568-1.2.57-2.553.28-3.828.328V3.55c.577.018 1.16-.009 1.738-.006zM7.06 16.426l-3.272 2.408-2.787 2.049L3.05 23.67l13.836 18.805v4.072h.011v1.305h28.61v-.055h.015v-29.79h-.093v-.003H34.44l-1.096-1.49-4.307-.014 1.108 1.506H16.887V36.63L5.84 21.619l7.03-5.172 16.167.053-21.976-.074zm13.283 5.039h21.722V41.39H20.39l-.045-.063V21.465z" fill="#ff7f2a"/></svg>

<?xml version="1.0" encoding="UTF-8" standalone="no"?>
<svg
   xmlns:dc="http://purl.org/dc/elements/1.1/"
   xmlns:cc="http://creativecommons.org/ns#"
   xmlns:rdf="http://www.w3.org/1999/02/22-rdf-syntax-ns#"
   xmlns:svg="http://www.w3.org/2000/svg"
   xmlns="http://www.w3.org/2000/svg"
   xmlns:sodipodi="http://sodipodi.sourceforge.net/DTD/sodipodi-0.dtd"
   xmlns:inkscape="http://www.inkscape.org/namespaces/inkscape"
   width="48"
   height="48"
   version="1.1"
   id="svg35"
   sodipodi:docname="image-jpeg.svg"
   inkscape:version="0.92.4 (5da689c313, 2019-01-14)">
  <metadata
     id="metadata39">
    <rdf:RDF>
      <cc:Work
         rdf:about="">
        <dc:format>image/svg+xml</dc:format>
        <dc:type
           rdf:resource="http://purl.org/dc/dcmitype/StillImage" />
        <dc:title></dc:title>
      </cc:Work>
    </rdf:RDF>
  </metadata>
  <sodipodi:namedview
     pagecolor="#ffffff"
     bordercolor="#666666"
     borderopacity="1"
     objecttolerance="10"
     gridtolerance="10"
     guidetolerance="10"
     inkscape:pageopacity="0"
     inkscape:pageshadow="2"
     inkscape:window-width="1087"
     inkscape:window-height="480"
     id="namedview37"
     showgrid="false"
     inkscape:zoom="4.9166667"
     inkscape:cx="2.1355932"
     inkscape:cy="24"
     inkscape:window-x="0"
     inkscape:window-y="25"
     inkscape:window-maximized="0"
     inkscape:current-layer="svg35" />
  <defs
     id="defs31">
    <linearGradient
       id="a">
      <stop
         offset="0"
         stop-color="#dc85e9"
         id="stop2" />
      <stop
         offset="1"
         stop-color="#f2cbf8"
         id="stop4" />
    </linearGradient>
    <linearGradient
       id="b">
      <stop
         offset="0"
         stop-color="#dc85e9"
         id="stop7" />
      <stop
         offset="1"
         stop-color="#f2cbf8"
         id="stop9" />
    </linearGradient>
    <linearGradient
       id="c">
      <stop
         offset="0"
         stop-color="#fff"
         stop-opacity=".588"
         id="stop12" />
      <stop
         offset="1"
         stop-color="#fff"
         stop-opacity=".863"
         id="stop14" />
    </linearGradient>
    <linearGradient
       id="d">
      <stop
         offset="0"
         stop-color="#b3b3b3"
         id="stop17" />
      <stop
         offset="1"
         stop-color="#e6e6e6"
         id="stop19" />
    </linearGradient>
    <linearGradient
       id="e">
      <stop
         offset="0"
         stop-color="#e694bb"
         id="stop22" />
      <stop
         offset=".262"
         stop-color="#d3819a"
         id="stop24" />
      <stop
         offset=".705"
         stop-color="#b25a64"
         id="stop26" />
      <stop
         offset="1"
         stop-color="#98313d"
         id="stop28" />
    </linearGradient>
  </defs>
  <path
     d="m 13.611,2.367 v 5.965 c -0.058,1.356 0.174,2.766 -0.275,4.072 -0.807,1.512 -2.718,0.68 -3.727,-0.134 -0.33,-0.094 -0.499,0.624 -0.765,0.851 1.056,0.906 2.532,1.504 3.955,1.135 1.323,-0.27 2.013,-1.571 1.998,-2.781 0.089,-3.035 0.021,-6.072 0.043,-9.108 h -1.23 z m 6.77,0 C 19.535,2.359 18.685,2.397 17.844,2.371 V 14.29 c 0.248,0.155 0.78,0.022 1.133,0.066 V 9.377 C 18.847,8.821 19.105,8.688 19.59,8.789 21.175,8.725 23.095,9.003 24.242,7.545 25.424,5.963 24.81,3.191 22.896,2.633 22.07,2.429 21.226,2.376 20.381,2.367 Z m 12.558,0 c -1.4,0.011 -2.79,0.442 -3.91,1.344 -2.458,1.898 -2.934,5.86 -0.959,8.277 1.76,2.368 5.195,2.953 7.801,1.819 1.967,-0.88 3.039,-3.095 2.97,-5.21 h -4.79 c -0.152,0.236 -0.017,0.76 -0.063,1.102 h 3.338 c 0.592,0.421 -0.45,1.952 -1.025,2.45 -2.41,2.157 -6.714,1.061 -7.9,-1.952 -1.032,-2.234 0.091,-5.094 2.279,-6.115 2.185,-1.198 4.956,-0.41 6.623,1.328 0.29,-0.28 0.582,-0.558 0.873,-0.838 L 38.026,4.43 37.873,4.293 C 36.564,3.032 34.741,2.353 32.939,2.367 Z M 20.715,3.543 c 0.578,0.003 1.152,0.035 1.72,0.17 1.464,0.42 1.695,2.816 0.37,3.568 -1.2,0.57 -2.553,0.28 -3.828,0.328 V 3.55 c 0.577,0.018 1.16,-0.009 1.738,-0.006 z M 7.06,16.426 3.788,18.834 1.001,20.883 3.05,23.67 16.886,42.475 v 4.072 h 0.011 v 1.305 h 28.61 v -0.055 h 0.015 V 18.007 H 45.429 V 18.004 H 34.44 l -1.096,-1.49 -4.307,-0.014 1.108,1.506 H 16.887 V 36.63 L 5.84,21.619 12.87,16.447 29.037,16.5 7.061,16.426 Z m 13.283,5.039 H 42.065 V 41.39 H 20.39 L 20.345,41.327 V 21.465 Z"
     id="path33"
     inkscape:connector-curvature="0"
     style="fill:#ff7f2a" />
</svg>
